dist/template/img/svg/bus-gray.svg

<!-- Generated by IcoMoon.io -->
<svg version="1.1" xmlns="http://www.w3.org/2000/svg" width="16" height="16" viewBox="0 0 16 16">
<title>bus-gray</title>
<path fill="#8a8b8a" d="M12.048 0h-8.032c-1.673 0-2.677 0.923-2.677 2.462v13.539h1.339v-1.844h10.71v1.846h1.339v-13.541c0-1.539-1.004-2.462-2.677-2.462zM13.387 12.924h-10.71v-10.462c0.079-0.683 0.644-1.211 1.337-1.231l0.002-0h8.032c0.695 0.020 1.26 0.548 1.338 1.224l0.001 0.006zM5.355 11.693v-1.231h-1.339v1.231zM12.048 10.462h-1.339v1.231h1.339zM0 9.231h16.064v-1.232h-16.064zM8.701 8.923v-4.618h-1.339v4.618zM1.339 4.923h13.387v-1.231h-13.387z"></path>
</svg>

<svg xmlns="http://www.w3.org/2000/svg" width="16" height="16"><path fill="#8a8b8a" d="M12.048 0H4.016C2.343 0 1.339.923 1.339 2.462v13.539h1.339v-1.844h10.71v1.846h1.339V2.462C14.727.923 13.723 0 12.05 0zm1.339 12.924H2.677V2.462a1.388 1.388 0 0 1 1.337-1.231h8.034c.695.02 1.26.548 1.338 1.224l.001.006zm-8.032-1.231v-1.231H4.016v1.231zm6.693-1.231h-1.339v1.231h1.339zM0 9.231h16.064V7.999H0zm8.701-.308V4.305H7.362v4.618zm-7.362-4h13.387V3.692H1.339z"/></svg>
